payu/img/payu_later_paypo_logo.svg

<?xml version="1.0" encoding="UTF-8"?>
<svg xmlns="http://www.w3.org/2000/svg" xmlns:xlink="http://www.w3.org/1999/xlink" height="25px" viewBox="0 0 189 56" version="1.1">
<g id="surface1">
<path style=" stroke:none;fill-rule:nonzero;fill:rgb(65.490196%,1.960784%,51.764706%);fill-opacity:1;" d="M 29.460938 31.347656 L 29.460938 41.796875 L 18.949219 41.796875 L 18.949219 31.347656 Z M 29.460938 31.347656 "/>
<path style=" stroke:none;fill-rule:nonzero;fill:rgb(21.176471%,70.980392%,52.941176%);fill-opacity:1;" d="M 29.414062 17.171875 L 29.414062 27.703125 L 18.90625 27.703125 L 18.90625 17.171875 Z M 29.414062 17.171875 "/>
<path style=" stroke:none;fill-rule:nonzero;fill:rgb(98.039216%,81.568627%,35.686275%);fill-opacity:1;" d="M 15.398438 31.21875 L 15.398438 41.753906 L 4.886719 41.753906 L 4.886719 31.21875 Z M 15.398438 31.21875 "/>
<path style=" stroke:none;fill-rule:evenodd;fill:rgb(0%,0%,0%);fill-opacity:1;" d="M 60.796875 16.511719 C 60.796875 23.773438 54.96875 29.617188 47.449219 29.617188 L 41.726562 29.617188 L 41.726562 41.628906 L 33.007812 41.628906 L 33.007812 3.410156 L 47.449219 3.410156 C 54.96875 3.410156 60.796875 9.253906 60.796875 16.511719 Z M 52.082031 16.511719 C 52.082031 13.722656 50.117188 11.59375 47.449219 11.59375 L 41.726562 11.59375 L 41.726562 21.425781 L 47.449219 21.425781 C 50.117188 21.425781 52.082031 19.300781 52.082031 16.511719 Z M 52.082031 16.511719 "/>
<path style=" stroke:none;fill-rule:evenodd;fill:rgb(0%,0%,0%);fill-opacity:1;" d="M 91.203125 13.585938 L 91.203125 41.621094 L 82.8125 41.621094 L 82.8125 38.988281 C 80.96875 41.113281 78.226562 42.40625 74.480469 42.40625 C 67.152344 42.40625 61.109375 35.960938 61.109375 27.605469 C 61.109375 19.25 67.152344 12.804688 74.480469 12.804688 C 78.226562 12.804688 80.960938 14.09375 82.8125 16.222656 L 82.8125 13.589844 Z M 82.8125 27.605469 C 82.8125 23.398438 80.011719 20.761719 76.15625 20.761719 C 72.300781 20.761719 69.5 23.398438 69.5 27.605469 C 69.5 31.804688 72.300781 34.449219 76.15625 34.449219 C 80.011719 34.449219 82.8125 31.804688 82.8125 27.605469 Z M 82.8125 27.605469 "/>
<path style=" stroke:none;fill-rule:evenodd;fill:rgb(0%,0%,0%);fill-opacity:1;" d="M 123.074219 13.585938 L 113.582031 40.589844 C 110.46875 49.441406 105.523438 52.949219 97.746094 52.5625 L 97.746094 44.765625 C 101.636719 44.765625 103.472656 43.535156 104.695312 40.144531 L 93.644531 13.585938 L 102.808594 13.585938 L 108.976562 30.621094 L 114.199219 13.585938 Z M 123.074219 13.585938 "/>
<path style=" stroke:none;fill-rule:evenodd;fill:rgb(0%,0%,0%);fill-opacity:1;" d="M 154.140625 16.511719 C 154.140625 23.773438 148.308594 29.617188 140.789062 29.617188 L 135.066406 29.617188 L 135.066406 41.628906 L 126.351562 41.628906 L 126.351562 3.410156 L 140.789062 3.410156 C 148.300781 3.410156 154.140625 9.253906 154.140625 16.511719 Z M 145.421875 16.511719 C 145.421875 13.722656 143.460938 11.59375 140.789062 11.59375 L 135.066406 11.59375 L 135.066406 21.425781 L 140.789062 21.425781 C 143.460938 21.425781 145.421875 19.300781 145.421875 16.511719 Z M 145.421875 16.511719 "/>
<path style=" stroke:none;fill-rule:evenodd;fill:rgb(0%,0%,0%);fill-opacity:1;" d="M 155.230469 27.988281 C 155.230469 19.847656 161.660156 13.566406 169.667969 13.566406 C 177.679688 13.566406 184.113281 19.847656 184.113281 27.988281 C 184.113281 36.121094 177.679688 42.40625 169.667969 42.40625 C 161.660156 42.40625 155.230469 36.125 155.230469 27.988281 Z M 175.9375 27.988281 C 175.9375 24.109375 173.210938 21.542969 169.667969 21.542969 C 166.125 21.542969 163.402344 24.109375 163.402344 27.988281 C 163.402344 31.859375 166.125 34.429688 169.667969 34.429688 C 173.210938 34.429688 175.9375 31.863281 175.9375 27.988281 Z M 175.9375 27.988281 "/>
</g>
</svg>

<svg version="1.1" height="25" width="91" viewBox="0 0 91 25" xmlns="http://www.w3.org/2000/svg">
 <g transform="matrix(.50774 0 0 .50832 -2.4808 -1.7334)">
  <path d="m29.461 31.348v10.449h-10.512v-10.449z" fill="#a60282"/>
  <path d="m29.414 17.172v10.531h-10.508v-10.531z" fill="#35b385"/>
  <path d="m15.398 31.219v10.535h-10.512v-10.535z" fill="#facf59"/>
  <g fill-rule="evenodd">
   <path d="m60.797 16.512c0 7.2617-5.8281 13.105-13.348 13.105h-5.7227v12.012h-8.7188v-38.219h14.441c7.5195 0 13.348 5.8438 13.348 13.102zm-8.7148 0c0-2.7891-1.9648-4.918-4.6328-4.918h-5.7227v9.832h5.7227c2.668 0 4.6328-2.125 4.6328-4.9141z"/>
   <path d="m91.203 13.586v28.035h-8.3906v-2.6328c-1.8438 2.125-4.5859 3.418-8.332 3.418-7.3281 0-13.371-6.4453-13.371-14.801s6.043-14.801 13.371-14.801c3.7461 0 6.4805 1.2891 8.332 3.418v-2.6328zm-8.3906 14.02c0-4.207-2.8008-6.8438-6.6562-6.8438s-6.6562 2.6367-6.6562 6.8438c0 4.1992 2.8008 6.8438 6.6562 6.8438s6.6562-2.6445 6.6562-6.8438z"/>
   <path d="m123.07 13.586-9.4922 27.004c-3.1133 8.8516-8.0586 12.359-15.836 11.973v-7.7969c3.8906 0 5.7266-1.2305 6.9492-4.6211l-11.051-26.559h9.1641l6.168 17.035 5.2227-17.035z"/>
   <path d="m154.14 16.512c0 7.2617-5.832 13.105-13.352 13.105h-5.7226v12.012h-8.7148v-38.219h14.438c7.5117 0 13.352 5.8438 13.352 13.102zm-8.7188 0c0-2.7891-1.9609-4.918-4.6328-4.918h-5.7226v9.832h5.7226c2.6719 0 4.6328-2.125 4.6328-4.9141z"/>
   <path d="m155.23 27.988c0-8.1406 6.4297-14.422 14.438-14.422 8.0117 0 14.445 6.2812 14.445 14.422 0 8.1328-6.4336 14.418-14.445 14.418-8.0078 0-14.438-6.2812-14.438-14.418zm20.707 0c0-3.8789-2.7266-6.4453-6.2695-6.4453s-6.2656 2.5664-6.2656 6.4453c0 3.8711 2.7227 6.4414 6.2656 6.4414s6.2695-2.5664 6.2695-6.4414z"/>
  </g>
 </g>
</svg>
